X:1
T:Holding the Life-Line
T:Holding the Life-Line
T:Ralph S. Tinsman
T:Ralph S. Tinsman, 1900
T:Public Domain Courtesy of the Cyber Hymnal™
T:Public Domain Courtesy of the Cyber Hymnal™
C:Ralph S. Tinsman
Z:Public Domain
Z:Courtesy of the Cyber Hymnal™
%%score ( 1 2 ) 3
L:1/8
Q:1/4=85
M:6/8
K:F
V:1 treble 
V:2 treble 
V:3 bass 
V:1
 [FA]>[FA][FA] [FA][FG]F | [Fc]2 [Fc] [Fc]3 | [Fc]>[Fd][Fc] [Fc][FA]F ([FA][FG])F [EG]3 | %3
w: 1.~Out on the per- i- lous|sea of life,|Some one is drift- ing a- way * to- night;|
w: 2.~Far- ther and far- ther they|drift each day,|Rest- ing their oars on the ocean’s * white spray,|
w: 3.~Quick to the res- cue while|yet you may,|Suc- cor the per- ish- ing, save~one * to- day;|
w: 4.~Now I sur- ren- der my|all to Him,|Je- sus has res- cued and saved~me * from sin;|
 [FA]>[FA][FA] [FA][FG] (F/[FA]/) | [Fc]2 ([Fc]/[Fc]/) [Fc]2 z | [Fc]>[Fd][Fc] [Fc][FA]F | %6
w: Out in the dark- ness, where~the *|storm rages * wild,|Throw out the life- line to|
w: Dream- ing of plea- sure with- *|out al- * loy.|Throw out the life- line to|
w: Tell them of Je- sus who *|came to * save.|He that be- liev- eth sal-|
w: Beau- ti- ful vi- sions burst *|on my * sight,|Glo- ry to Je- sus, I’m|
 [FA]2 ([EG]/[EG]/) F3 ||"^Refrain" [Fd]2 [Fd] !fermata![Fd]2 [FA]/[FA]/ | [Fc]2 [Fc] [Fc]3 | %9
w: some mother’s * child.|||
w: some mother’s * boy.|1,2,3.~Hold it fast while the|waves roll high,|
w: vation may * have.|4.~Hold- ing fast while the|waves roll high,|
w: saved to- * night.|||
 [Fc]>[Fd][Fc] [FA][FG]F | [FA]2 F [EG]3 | [Fc]2 [Fd] [FA]2 [FG]/F/ | [FB]2 [Fd] [Fc]2 [FA] | %13
w: ||||
w: Je- sus will res- cue you|by and by.|Saved at last, what a|joy to know, Take|
w: Je- sus has res- cued me,|this my cry.|Saved I am, what a|joy to know; I’m|
w: ||||
 [Fc]>[Fd][Fc] [Fc][FA]F | [FA]<[FA][EG] F3 |] %15
w: ||
w: hold of the life- line, and|ne- ver let go.|
w: hold- ing the life- line, I’ll|ne- ver let go.|
w: ||
V:2
 x5 F | x6 | x5 F x F x4 | x5 F/ x/ | x6 | x5 F | x3 F3 || x6 | x6 | x5 F | x2 F x3 | x11/2 F/ | %12
 x6 | x5 F | x3 F3 |] %15
V:3
 [F,C]>[F,C][F,C] [F,C][F,B,][F,A,] | [F,A,]2 [F,A,] [F,A,]3 | %2
 [F,A,]>[F,B,][F,A,] [F,A,][F,C][F,A,] ([F,C][F,B,])[F,A,] [C,C]3 | %3
 [F,C]>[F,C][F,C] [F,C][F,B,] ([F,A,]/[F,C]/) | [F,A,]2 ([F,A,]/[F,A,]/) [F,A,]2 z | %5
 [F,A,]>[F,B,][F,A,] [F,A,][F,C][F,A,] | [C,C]2 ([C,B,]/[C,B,]/) [F,A,]3 || %7
 [B,,B,]2 [B,,B,] !fermata![B,,B,]2 [F,C]/[F,C]/ | [F,A,]2 [F,A,] [F,A,]3 | %9
 [F,A,]>[F,B,][F,A,] [F,C][F,B,][F,A,] | [F,C]2 [F,A,] [C,C]3 | %11
 [F,A,]2 [F,B,] [F,C]2 [F,B,]/[F,A,]/ | [F,D]2 [F,B,] [F,A,]2 [F,C] | %13
 [F,A,]>[F,B,][F,A,] [F,A,][F,C][F,A,] | [C,C]<[C,C][C,B,] [F,,F,A,]3 |] %15

